X:1
T: Mrs. Muir McKenzie's Fancy
C:
R:Jig
Q:180
K:A
M:6/8
L:1/16
|:A2c2e2 e2c2e2|f2d2f2 e2c2e2|f3ga2 e2d2c2|B2c2A2 G2F2E2|
A2c2e2 e2c2e2|f2d2f2 e2c2e2|f3ga2 e2c2A2|B6A6:|
|:a6 e2c2A2|f6 e2c2A2|a6 e2c2A2|G2A2B2 B2G2E2|
|1a6 e2c2A2|f6 f2g2a2|e2f2g2 a2e2c2|B6A6:|
|2a2g2f2 e2f2g2|a2g2f2 e2d2c2|d2b2d2 c2a2c2|B6A6||
